src/static/logos/gusto.svg

<?xml version="1.0" encoding="UTF-8"?>
<svg width="256px" height="250px" viewBox="0 0 256 250" version="1.1" xmlns="http://www.w3.org/2000/svg" xmlns:xlink="http://www.w3.org/1999/xlink" preserveAspectRatio="xMidYMid">
	<g fill="#EF0000">
		<path d="M139.964707,249.179593 C76.3443857,249.179593 24.3877899,197.222997 24.3877899,133.602675 C24.3877899,69.9823535 76.3443857,18.0257577 139.964707,18.0257577 C203.585029,18.0257577 255.541624,69.9823535 255.541624,133.602675 C255.541624,197.222997 203.585029,249.179593 139.964707,249.179593 L139.964707,249.179593 L139.964707,249.179593 Z M139.964707,26.155021 C80.5857405,26.155021 32.5170532,74.2237083 32.5170532,133.602675 C32.5170532,192.981642 80.5857405,241.050329 139.964707,241.050329 C199.343673,241.050329 247.412361,192.981642 247.412361,133.602675 C247.412361,74.2237083 198.990227,26.155021 139.964707,26.155021 L139.964707,26.155021 L139.964707,26.155021 Z"></path>
		<path d="M116.283809,249.179593 C52.6634883,249.179593 0.70689246,197.222997 0.70689246,133.602675 C0.70689246,69.9823535 52.6634883,18.0257577 116.283809,18.0257577 C179.904131,18.0257577 231.860727,69.9823535 231.860727,133.602675 C231.860727,197.222997 179.904131,249.179593 116.283809,249.179593 L116.283809,249.179593 L116.283809,249.179593 Z M116.283809,26.155021 C56.9048431,26.155021 8.83615576,74.2237083 8.83615576,133.602675 C8.83615576,192.981642 56.9048431,241.050329 116.283809,241.050329 C175.662776,241.050329 223.731464,192.981642 223.731464,133.602675 C223.731464,74.2237083 175.662776,26.155021 116.283809,26.155021 L116.283809,26.155021 L116.283809,26.155021 Z"></path>
		<path d="M128.654428,231.860727 C65.0341064,231.860727 13.0775106,179.904131 13.0775106,116.283809 C13.0775106,52.6634883 65.0341064,0.70689246 128.654428,0.70689246 C192.274749,0.70689246 244.231345,52.6634883 244.231345,116.283809 C244.231345,179.904131 192.274749,231.860727 128.654428,231.860727 L128.654428,231.860727 L128.654428,231.860727 Z M128.654428,8.83615576 C69.2754611,8.83615576 21.2067738,56.9048431 21.2067738,116.283809 C21.2067738,175.662776 69.2754611,223.731464 128.654428,223.731464 C188.033395,223.731464 236.102082,175.662776 236.102082,116.283809 C236.102082,56.9048431 188.033395,8.83615576 128.654428,8.83615576 L128.654428,8.83615576 L128.654428,8.83615576 Z"></path>
		<path d="M164.475711,137.844029 C162.135425,140.318154 159.886222,142.792277 157.637018,145.266401 C148.09397,155.869788 140.6716,163.645604 128.300981,163.645604 C105.680423,163.645604 87.3012189,145.266401 87.3012189,122.645842 C87.3012189,100.025283 105.680423,81.6460792 128.300981,81.6460792 C142.085384,81.6460792 155.162895,89.06845 162.938712,101.085621 C165.412836,104.620084 169.65419,105.326977 173.188652,103.559746 C176.723115,101.085621 177.430008,96.844267 175.662776,93.3098047 C165.412836,76.6978319 147.740524,67.1547837 128.300981,67.1547837 C97.5511595,67.1547837 72.4564772,91.8960199 72.4564772,122.645842 C72.4564772,153.395664 97.5511595,178.490346 128.300981,178.490346 L128.300981,178.490346 C147.033632,178.490346 157.637018,167.180067 167.886959,155.162895 C168.363786,154.638385 168.83418,154.120309 169.300744,153.607798 L169.300744,169.300744 C169.300744,172.835207 172.481761,176.369669 176.369669,176.369669 L176.369669,176.369669 C180.96447,176.369669 184.145486,173.188652 183.438593,169.300744 L183.438593,130.775106 C183.438593,127.240643 180.257577,123.706181 176.369669,123.706181 L140.318154,123.706181 C136.783691,123.706181 133.249229,127.240643 133.249229,130.775106 C133.249229,134.309567 136.430245,137.844029 140.318154,137.844029 L164.475711,137.844029 L164.475711,137.844029 Z"></path>
	</g>
</svg>

<svg width="256" height="250" xmlns="http://www.w3.org/2000/svg" preserveAspectRatio="xMidYMid"><g fill="#EF0000"><path d="M139.965 249.18c-63.62 0-115.577-51.957-115.577-115.577S76.344 18.026 139.965 18.026c63.62 0 115.577 51.956 115.577 115.577 0 63.62-51.957 115.577-115.577 115.577zm0-223.025c-59.38 0-107.448 48.069-107.448 107.448 0 59.379 48.069 107.447 107.448 107.447 59.379 0 107.447-48.068 107.447-107.447 0-59.38-48.422-107.448-107.447-107.448z"/><path d="M116.284 249.18C52.664 249.18.707 197.223.707 133.603S52.663 18.026 116.284 18.026c63.62 0 115.577 51.956 115.577 115.577 0 63.62-51.957 115.577-115.577 115.577zm0-223.025c-59.38 0-107.448 48.069-107.448 107.448 0 59.379 48.069 107.447 107.448 107.447 59.379 0 107.447-48.068 107.447-107.447 0-59.38-48.068-107.448-107.447-107.448z"/><path d="M128.654 231.86c-63.62 0-115.576-51.956-115.576-115.576C13.078 52.664 65.034.707 128.654.707c63.62 0 115.577 51.956 115.577 115.577 0 63.62-51.956 115.577-115.577 115.577zm0-223.024c-59.379 0-107.447 48.069-107.447 107.448 0 59.379 48.068 107.447 107.447 107.447 59.38 0 107.448-48.068 107.448-107.447 0-59.38-48.069-107.448-107.448-107.448z"/><path d="M164.476 137.844c-2.34 2.474-4.59 4.948-6.839 7.422-9.543 10.604-16.965 18.38-29.336 18.38-22.62 0-41-18.38-41-41s18.38-41 41-41c13.784 0 26.862 7.422 34.638 19.44 2.474 3.534 6.715 4.241 10.25 2.474 3.534-2.474 4.241-6.716 2.474-10.25-10.25-16.612-27.922-26.155-47.362-26.155-30.75 0-55.845 24.741-55.845 55.49 0 30.75 25.095 55.845 55.845 55.845 18.733 0 29.336-11.31 39.586-23.327.477-.525.947-1.043 1.414-1.555V169.3c0 3.534 3.18 7.069 7.069 7.069 4.594 0 7.775-3.181 7.069-7.07v-38.525c0-3.534-3.181-7.069-7.07-7.069h-36.05c-3.535 0-7.07 3.535-7.07 7.07 0 3.534 3.181 7.068 7.07 7.068h24.157z"/></g></svg>
